X:1
T:Angels With Scaly Wings OST - Adine's Theme
T:Angels With Scaly Wings OST - Adine's Theme
%%score { 1 | 2 }
L:1/8
Q:1/4=143
M:4/4
K:F
V:1 treble nm="Piano"
V:2 bass 
V:1
 z2 z [Fc] z E z2 | z2 F z E z2 z | z F z E z4 | F z E z4 F | z E z4 F z | E z4 F z E | %6
 z4 F z E z | z2 z F z E z2 | z2 F z E z2 z | z F z E z4 | F z E z4 F | z E z4 F z | E z4 F z2 | %13
 z4 F z E z | [EF] z2 F z E z2 | z2 F z E z C z | z/ F z/ E z C z2 F | z E z4 F z | E z4 F z E | %19
 z4 F z E z | z2 z F z E z [EF] | z2 F z E z2 z | z F z E z E z2 | F z E z4 F | z E z4 F z | %25
 E z4 F z E | z4 F z E z | z2 z F z E z2 | z2 FC E z/ F/ z2 | z F/ z z/ E z4 | FCE z4 F/ z/ | %31
 z E z4 F[ef] | E z4 Fe[Ee] | ca z2 [Ff] z E z | z2 z [Fc] gE z c- | c z [Fc]2 E z e2 | %36
 EF z E z f z2 | F z E z d2 z F | z [Ee]/f/ a/c/ d2 z F/ z z/ | E z c2 z F z [Ea]/B/ | %40
 a/g/a z2 F z E[Gg]/f/ | e2 z F f2 z g- | g z FC E z c2 | z F2 E z4 | F2 E z e2 z F- | %45
 F2 z [Ff]2 z F2 | EG<F F2 Fe[Eeg] | [cd][ca] z2 F2 E z | d [FA]2 F [cg]E z [ce]- | %49
 [ce] z F2 [Ed]c [Ge]2 | z FAE z [Af]A z | F[FA]E z [Fd]2 z2 | z [Ge]/f/ [ca]/c/[df] z z/ F2 E/- | %53
 E/ z/ c/ d2- d/ F2 [Eca]/[Bd]/a/[Bg]/ | [ca]c z2 z E [Bg]/[FAf]/[Ge]- | %55
 [Ge] z F[FAf] E z [CBg]2- | [CBg] F3 z [Ec]2 z | F3 z [cd]3 F | c2 z e2 z F/ z z/ | %59
 c/[Fd]/e/f/ [Fcg]2 [ca][Ffa][ca][Eea] | aa[ca][ca] [Ffa]a[Eca][ca] | %61
 [ca][ca][ca][Fccffa] [ccaa][Ecca][ccaa][aa] | [cca][ccaa][Fccfa]a [Eca][ca][EFca][ca] | %63
 [ca][Fca][ca][Ecaa] [cca][caa][cca][cca] | [Fcca][ca][Ec][ca] [Ec] z c[Fc] | %65
 c[Ec]c z [cca]a[Fcc][aa] | [Ecc][caa][Ecc][caa] [ccaa][Ffaa][caa][Ecaa] | %67
 [ccaa]a[cca][cca] [Fccfa][ca][CEcca][ccaa] | [ccaa][ccaa][ccaa][Fccfaa] [ccaa][Eca][cca][ca] | %69
 [ca][ca][Fca]a [Ec]a[ca][cca] | [cca][Fcca][cca][Eca] [cca][ca][cca][cca] | %71
 [Fcca][ca][Ecca][cca] [Ecca][cca][cca][Fccaa] | [ccaa][Ecca][ccaa][ccaa] [cca][cca][Fcca][ca] | %73
 [Eca]a/ z2 z z/ [Fc] z E | z4 F z E z | z2 z F z E z2 | z2 F z E z2 z | z8 | z8 | z8 | z8 | %81
V:2
 F,A,G, z F, z G,F, | A,G, z F, z G,F,A,- | A, z F, z G,F,A,G, | z F, z G, [F,,,F,]A,G, z | %4
 F, z G,F, A,G, z F, | z [C,,G,][F,,,F,]A, G, z F, z | G,F,A,G, z [C,,F,] z G, | %7
 [D,,D,]A,G, z D, z G,D,- | D,G, z D, z G, [D,,D,]2 | G, z D,/E,/ z G,D,A,G, | %10
 z [C,,D,] z G, [B,,,B,,]A,G, z | B,, z G,B,, A,G, z B,, | z G,B,,A, G, z B,,2 | %13
 G,B,,A,G, z B,, z G, | [C,,C,G,]A,G, z C, z G,C, | A,G, z C, z G, [C,,C,]A,/G,/- | %16
 G,/ z C,/ z G, C,A,G, z | C, z G,[F,,,F,G,] A,G, z F, | z G,[F,,,F,]A, G, z F, z | %19
 [C,,G,][F,,,F,]A,G, z F, z G, | [F,,,F,]A,G, z [C,,F,] z G,[D,,D,G,] | A,G, z D, z G,[D,,D,]A, | %22
 G, z D, z G,[D,,D,]A,G, | z D, z G, [D,,D,]A,G, z | [C,,D,] z G,[B,,,B,,B,] A,G, z [B,,B,] | %25
 z G,[B,,,B,,B,]A, G, z [B,,B,] z | G,[B,,,B,,]A,G, z B,, z G, | %27
 [B,,,B,,]A,G, z B,, z G,[C,,C,G,] | A,G, z C, z G,/ z/ C,,A, | G, z/ C,3/2 z G, [C,,C,]2 G, | %30
 z C, z G,/C,/ C,,2 G, z/ C,/- | C, z G,[F,,,F,,F,] A,G, z F, | z G,[F,,,F,]A, G, z F, z | %33
 [C,,G,][F,,,F,]A,G, z F, z G, | [F,,,F,A,]2 G, z C,, z G,[D,,D,A,]- | %35
 [D,,D,A,]G, z2 z G, [D,,D,]2 | G, z D, z G,[D,,D,]A,G, | z D, z G, [D,,D,]2 G, z | %38
 [C,,D,] z G,/ z/ [B,,,B,,B,]2 G, z/ B,,3/2 | z G, [B,,,B,,]2 G, z B,, z | %40
 G,/ z/ [B,,,B,,] A,G, z B,, z G,/ z/ | [B,,,B,,]2 G, z B,,2 G,[C,,C,G,]- | %42
 [C,,C,G,]G, z C, z G, C,2 | G, z2 z G, C,2 G, | z2 z G, C,,2 G, z | z2 G, F,,,2 G, z2 | z8 | %47
 G, z A,G, z2 z G, | z4 z2 G,[D,,D,]- | [D,,D,]G, z2 z G, z2 | G, z2 z G, z2 G, | z2 z G, z2 G,2- | %52
 G, z2 [B,,,B,,B,] A,G,/ z2 z/ | z/ G,/ z4 z2 G,/ z/ | z A, G,3 z G,/ z z/ | %55
 z G, z2 z G, [C,,C,]2- | [C,,C,] z2 z G, z2 G, | z2 z G, C,3 z | C,2 G,/C,/ z2 G, z/ C,3/2 | %59
 z G,/ z/ [F,,,F,]2 z2 F, z | G,F,A,G, z F, z C,, | [F,,,F,] z2 z F, z G,F, | %62
 A,G, z [C,,F,] z2 [D,,D,]A, | G, z D, z G,D,A,G, | z D, z G, [D,,D,]A,G, z | %65
 D, z G,D, z G, z [C,,D,] | z G,[B,,,B,,]A, G, z B, z | G,B,,A,G, z [B,,B,] z G, | %68
 [B,,,B,,]A,G, z B,, z G,B,, | A,G, z B,, z G,[C,,C,] z | G, z C, z G,C,A,G, | %71
 z C, z G, [C,,C,]A,G, z | C, z G,C, A,G, z C, | z G,/C,/ [F,,,F,,F,]A, G, z F, z | %74
 G,F,A,G, z F, z [C,,C,G,] | [F,,,F,,F,] A,2 z F, z G,F, | A,G, z F, z C,, F,,,2- | F,,,8- | %78
 F,,,8- | F,,,8- | F,,,8 | %81

